symbolic/64x64/places/folder-green-backup.svg

<svg xmlns="http://www.w3.org/2000/svg" width="64" height="64" version="1">
 <rect style="opacity:0.2" width="56" height="36" x="4" y="22" rx="2.8" ry="2.8"/>
 <path style="fill:#60924b" d="M 4,46.2 C 4,47.751 5.2488,49 6.8,49 H 57.2 C 58.751,49 60,47.751 60,46.2 V 15.8 C 60,14.249 58.751,13 57.2,13 H 32 C 27.8,13 26.4,7 22.2,7 H 6.8 C 5.2488,7 4,8.2488 4,9.8"/>
 <rect style="opacity:0.2" width="56" height="36" x="4" y="20" rx="2.8" ry="2.8"/>
 <rect style="fill:#e4e4e4" width="48" height="22" x="8" y="16" rx="2.8" ry="2.8"/>
 <rect style="fill:#87b158" width="56" height="36" x="4" y="21" rx="2.8" ry="2.8"/>
 <path style="opacity:0.1;fill:#ffffff" d="M 6.8008,7 C 5.2496,7 4,8.2496 4,9.8008 V 10.801 C 4,9.2496 5.2496,8 6.8008,8 H 22.199 C 26.399,8 27.8,14 32,14 H 57.199 C 58.75,14 60,15.25 60,16.801 V 15.801 C 60,14.25 58.75,13 57.199,13 H 32 C 27.8,13 26.399,7 22.199,7 Z"/>
 <path style="fill:#2f3e1f" d="m32.414062 29.007812c-0.847796-0.03587-1.710894 0.03684-2.570312 0.226563-4.577161 1.010464-7.843948 5.079982-7.84375 9.765625h-2l3 3 3-3h-2c-0.000215-3.758774 2.603582-7.001904 6.275391-7.8125 3.676934-0.811728 7.4098 1.040338 8.988281 4.458984 1.578481 3.418647 0.566976 7.460066-2.435547 9.732422-3.002523 2.272357-7.167978 2.146994-10.029297-0.300781-1.014322-0.865885-2.31315 0.655599-1.298828 1.521484 3.566836 3.051324 8.7923 3.207653 12.535156 0.375 3.742857-2.832652 5.010657-7.904431 3.042969-12.166015-1.475766-3.196189-4.479132-5.302245-7.822266-5.728516-0.278594-0.03552-0.559197-0.0603-0.841797-0.07227zm-0.429687 3.978516a1.0001 1.0001 0 0 0 -0.984375 1.013672v4.863281a1.0001 1.0001 0 0 0 0.04102 0.433594 1.0001 1.0001 0 0 0 0.02734 0.07422 1.0001 1.0001 0 0 0 0.208985 0.332031l2.921875 3.896484a1.0003905 1.0003905 0 0 0 1.601562 -1.199218l-2.800782-3.734376v-4.666016a1.0001 1.0001 0 0 0 -1.015625 -1.013672z"/>
</svg>

<svg xmlns="http://www.w3.org/2000/svg" width="64" height="64" version="1"><rect style="opacity:.2" width="56" height="36" x="4" y="22" rx="2.8" ry="2.8"/><path style="fill:#60924b" d="M4 46.2C4 47.751 5.249 49 6.8 49h50.4c1.551 0 2.8-1.249 2.8-2.8V15.8c0-1.551-1.249-2.8-2.8-2.8H32c-4.2 0-5.6-6-9.8-6H6.8A2.794 2.794 0 0 0 4 9.8"/><rect style="opacity:.2" width="56" height="36" x="4" y="20" rx="2.8" ry="2.8"/><rect style="fill:#e4e4e4" width="48" height="22" x="8" y="16" rx="2.8" ry="2.8"/><rect style="fill:#87b158" width="56" height="36" x="4" y="21" rx="2.8" ry="2.8"/><path style="opacity:.1;fill:#fff" d="M6.8 7C5.25 7 4 8.25 4 9.8v1.001A2.795 2.795 0 0 1 6.8 8H22.2c4.2 0 5.601 6 9.801 6h25.199A2.796 2.796 0 0 1 60 16.801v-1A2.796 2.796 0 0 0 57.199 13H32c-4.2 0-5.601-6-9.801-6z"/><path style="fill:#2f3e1f" d="M32.414 29.008A10.01 10.01 0 0 0 22 39h-2l3 3 3-3h-2a7.99 7.99 0 0 1 6.275-7.813 7.992 7.992 0 0 1 8.989 4.46 7.99 7.99 0 0 1-2.436 9.732 7.992 7.992 0 0 1-10.03-.3c-1.013-.867-2.312.655-1.298 1.52a10.01 10.01 0 0 0 12.535.376 10.01 10.01 0 0 0 3.043-12.166 10.012 10.012 0 0 0-8.664-5.801zm-.43 3.978A1 1 0 0 0 31 34v4.863a1 1 0 0 0 .041.434 1 1 0 0 0 .027.074 1 1 0 0 0 .21.332l2.921 3.897a1 1 0 0 0 1.602-1.2L33 38.666V34a1 1 0 0 0-1.016-1.014z"/></svg>
